public/library/xrpl-xrp-network-text-dark.svg

<svg width="732" height="182" viewBox="0 0 732 182" fill="none" xmlns="http://www.w3.org/2000/svg">
<path d="M299.295 81.0352L308.676 62.1796H324.421L308.457 90.3222L324.827 119.122H309.036L299.514 99.8594L289.977 119.122H274.233L290.603 90.3222L274.639 62.1796H290.399L299.295 81.0352ZM349.436 98.8432H341.978V118.95H328.329V62.1796H350.687C357.519 62.1796 362.695 63.6337 366.431 66.745C368.323 68.2468 369.834 70.1733 370.841 72.3682C371.849 74.563 372.326 76.9645 372.232 79.3779C372.35 82.8597 371.488 86.3048 369.746 89.3216C367.92 92.1275 365.333 94.3561 362.288 95.7475L374.092 118.731V119.356H359.38L349.436 98.8432ZM342.182 88.2897H350.89C351.951 88.4013 353.024 88.2723 354.028 87.9122C355.032 87.5522 355.942 86.9705 356.691 86.2103C358.07 84.597 358.805 82.5315 358.755 80.4098C358.83 79.3528 358.686 78.2915 358.331 77.2931C357.976 76.2947 357.417 75.3808 356.691 74.6093C355.93 73.868 355.017 73.2998 354.016 72.9436C353.015 72.5874 351.949 72.4516 350.89 72.5455H342.182V88.2897ZM393.573 99.6718V118.95H379.924V62.1796H402.72C406.727 62.0974 410.699 62.9485 414.321 64.6656C417.495 66.1959 420.196 68.5568 422.138 71.498C424.013 74.5479 424.948 78.0825 424.827 81.6606C424.911 84.183 424.413 86.6908 423.372 88.9899C422.33 91.289 420.774 93.3177 418.823 94.9189C414.883 98.2334 409.443 99.8907 402.454 99.8907H393.558L393.573 99.6718ZM393.573 89.1184H402.469C403.564 89.2289 404.669 89.1003 405.708 88.7412C406.747 88.3821 407.696 87.8013 408.489 87.0389C409.227 86.318 409.796 85.4415 410.153 84.4733C410.51 83.5051 410.646 82.4694 410.553 81.4417C410.694 79.1216 409.957 76.8332 408.489 75.0314C407.772 74.206 406.878 73.5536 405.874 73.1231C404.869 72.6925 403.78 72.4951 402.688 72.5455H393.573V89.1184ZM463.93 108.584H487.804V119.153H450.124V62.1796H463.805V108.584H463.93ZM528.157 94.9189H506.675V108.584H532.16V119.153H493.073V62.1796H532.441V72.7487H506.957V84.7562H528.298L528.157 94.9189ZM536.85 118.95V62.1796H555.284C560.115 62.1287 564.876 63.3299 569.105 65.6662C573.12 67.9215 576.383 71.3092 578.486 75.4066C580.74 79.6918 581.951 84.4488 582.019 89.2903V91.9795C582.119 96.8745 580.979 101.715 578.705 106.051C576.501 110.151 573.205 113.561 569.181 115.902C565.157 118.242 560.563 119.421 555.909 119.309H536.929L536.85 118.95ZM550.531 72.7487V108.584H555.221C556.974 108.681 558.724 108.355 560.324 107.634C561.923 106.913 563.327 105.818 564.415 104.44C566.499 101.553 567.541 97.41 567.541 92.0108V89.5249C567.541 83.9276 566.499 79.7844 564.415 77.0952C563.3 75.7002 561.865 74.5949 560.232 73.8736C558.599 73.1522 556.815 72.836 555.034 72.952H550.484L550.531 72.7487ZM634.505 112.101C631.892 114.717 628.668 116.641 625.124 117.699C620.79 119.16 616.236 119.864 611.663 119.778C604.205 119.778 598.186 117.495 593.839 112.93C589.493 108.365 587.007 101.986 586.585 93.8713V88.8995C586.508 83.8504 587.499 78.8422 589.493 74.2028C591.332 70.2104 594.279 66.8298 597.982 64.4623C601.874 62.183 606.325 61.0351 610.834 61.1477C617.87 61.1477 623.467 62.805 627.407 66.1196C631.347 69.4342 633.661 74.2028 634.239 80.613H620.981C620.802 78.0316 619.691 75.6032 617.854 73.7806C616.014 72.2931 613.68 71.5559 611.319 71.7168C609.71 71.6776 608.119 72.0577 606.702 72.8197C605.284 73.5818 604.09 74.6997 603.236 76.0633C601.101 79.8726 600.098 84.2116 600.343 88.5711V92.089C600.343 97.6862 601.375 102.033 603.236 104.941C605.096 107.849 608.208 109.287 612.351 109.287C615.26 109.488 618.14 108.602 620.434 106.801V97.8895H610.912V88.5086H634.114V112.101H634.505ZM676.985 94.9032H655.44V108.568H680.909V119.137H641.822V62.1796H681.191V72.7487H655.706V84.7562H677.251V94.9189L676.985 94.9032ZM707.019 98.8276H699.562V118.95H685.678V62.1796H708.051C714.899 62.1796 720.074 63.6337 723.795 66.745C725.69 68.2443 727.203 70.1703 728.211 72.3658C729.219 74.5613 729.694 76.964 729.596 79.3779C729.714 82.8597 728.853 86.3048 727.11 89.3216C725.284 92.1275 722.697 94.3561 719.652 95.7475L731.472 118.731V119.356H716.76L707.019 98.8276ZM699.562 88.2741H708.255C709.315 88.3856 710.388 88.2566 711.392 87.8966C712.396 87.5366 713.307 86.9549 714.055 86.1947C715.413 84.5786 716.131 82.5201 716.072 80.4098C716.144 79.3531 715.998 78.2929 715.643 77.295C715.288 76.2971 714.731 75.383 714.008 74.6093C713.252 73.8742 712.348 73.3097 711.355 72.9537C710.363 72.5977 709.305 72.4585 708.255 72.5455H699.546L699.562 88.2741Z" fill="white"/>
<path d="M55.3471 11.2571H59.7249V1.38619e-05H55.3471C50.7058 -0.004099 46.1092 0.907051 41.8203 2.68132C37.5315 4.4556 33.6346 7.05817 30.3526 10.3401C27.0707 13.6221 24.4681 17.5189 22.6938 21.8078C20.9196 26.0966 20.0084 30.6933 20.0125 35.3346V60.9757C20.0219 66.4049 17.9542 71.6321 14.2332 75.5856C10.5122 79.5392 5.41982 81.9196 0 82.239L0.312696 87.8675L0 93.496C5.41982 93.8154 10.5122 96.1958 14.2332 100.149C17.9542 104.103 20.0219 109.33 20.0125 114.759V144.309C19.9959 154.115 23.8731 163.525 30.7919 170.474C37.7107 177.422 47.1052 181.339 56.9106 181.364V170.107C50.1115 170.102 43.592 167.4 38.7842 162.592C33.9765 157.784 31.2737 151.265 31.2696 144.465V114.759C31.2743 109.456 29.98 104.232 27.4998 99.5442C25.0197 94.8564 21.4291 90.8474 17.0419 87.8675C21.4166 84.8751 24.9977 80.8634 27.4763 76.1784C29.955 71.4935 31.2568 66.2759 31.2696 60.9757V35.3346C31.2984 28.9577 33.8443 22.8502 38.3535 18.341C42.8627 13.8318 48.9702 11.2859 55.3471 11.2571V11.2571Z" fill="white"/>
<path d="M185.429 11.257H181.052V0H185.429C194.779 0.0248505 203.736 3.76056 210.332 10.3862C216.928 17.0118 220.624 25.9853 220.608 35.3346V60.9757C220.598 66.4049 222.666 71.632 226.387 75.5856C230.108 79.5392 235.2 81.9196 240.62 82.239L240.308 87.8675L240.62 93.496C235.2 93.8154 230.108 96.1958 226.387 100.149C222.666 104.103 220.598 109.33 220.608 114.759V144.309C220.624 154.115 216.747 163.525 209.828 170.474C202.91 177.422 193.515 181.339 183.71 181.364V170.106C190.509 170.102 197.028 167.4 201.836 162.592C206.644 157.784 209.347 151.265 209.351 144.465V114.759C209.346 109.456 210.64 104.232 213.12 99.5442C215.601 94.8564 219.191 90.8473 223.578 87.8675C219.204 84.875 215.623 80.8633 213.144 76.1784C210.665 71.4935 209.363 66.2759 209.351 60.9757V35.3346C209.367 32.1813 208.761 29.0557 207.566 26.1372C206.372 23.2187 204.613 20.5649 202.391 18.3278C200.168 16.0908 197.526 14.3146 194.615 13.1012C191.704 11.8878 188.583 11.2611 185.429 11.257V11.257Z" fill="white"/>
<path d="M161.352 45.3409H178.081L143.215 78.0176C136.96 83.6779 128.825 86.8122 120.389 86.8122C111.953 86.8122 103.817 83.6779 97.5619 78.0176L62.6963 45.3409H79.4255L105.848 70.0438C109.794 73.6652 114.955 75.6744 120.31 75.6744C125.666 75.6744 130.827 73.6652 134.773 70.0438L161.352 45.3409Z" fill="white"/>
<path d="M79.2688 136.023H62.5396L97.5615 103.189C103.782 97.4595 111.931 94.2786 120.388 94.2786C128.846 94.2786 136.994 97.4595 143.215 103.189L178.237 136.023H161.508L134.929 111.007C130.983 107.386 125.822 105.376 120.466 105.376C115.111 105.376 109.95 107.386 106.004 111.007L79.2688 136.023Z" fill="white"/>
</svg>

<svg xmlns="http://www.w3.org/2000/svg" width="732" height="182" fill="none" viewBox="0 0 732 182"><path fill="#fff" d="m299.295 81.035 9.381-18.855h15.745l-15.964 28.142 16.37 28.8h-15.791l-9.522-19.263-9.537 19.263h-15.744l16.37-28.8-15.964-28.142h15.76zm50.141 17.808h-7.458v20.107h-13.649V62.18h22.358c6.832 0 12.008 1.454 15.744 4.565a15.363 15.363 0 0 1 5.801 12.633 18.63 18.63 0 0 1-2.486 9.944 17.65 17.65 0 0 1-7.458 6.426l11.804 22.983v.625H359.38zm-7.254-10.553h8.708a7.1 7.1 0 0 0 5.801-2.08 8.62 8.62 0 0 0 2.064-5.8 7.664 7.664 0 0 0-2.064-5.8 7.38 7.38 0 0 0-5.801-2.065h-8.708zm51.391 11.382v19.278h-13.649V62.18h22.796a25.85 25.85 0 0 1 11.601 2.486 19.53 19.53 0 0 1 7.817 6.832 18.23 18.23 0 0 1 2.689 10.163 16.44 16.44 0 0 1-6.004 13.258c-3.94 3.314-9.38 4.972-16.369 4.972h-8.896zm0-10.554h8.896a7.58 7.58 0 0 0 6.02-2.08 6.95 6.95 0 0 0 2.064-5.596 9.26 9.26 0 0 0-2.064-6.41 7.25 7.25 0 0 0-5.801-2.486h-9.115zm70.357 19.466h23.874v10.569h-37.68V62.18h13.681v46.404zm64.227-13.665h-21.482v13.665h25.485v10.569h-39.087V62.18h39.368v10.569h-25.484v12.007h21.341zm8.693 24.031V62.18h18.434a27.97 27.97 0 0 1 13.821 3.486 23.46 23.46 0 0 1 9.381 9.74 30.75 30.75 0 0 1 3.533 13.884v2.69a29 29 0 0 1-3.314 14.071 25.2 25.2 0 0 1-9.524 9.851 25.2 25.2 0 0 1-13.272 3.407h-18.98zm13.681-46.201v35.835h4.69a10.95 10.95 0 0 0 9.194-4.144q3.126-4.33 3.126-12.43v-2.485q0-8.395-3.126-12.43a11.1 11.1 0 0 0-9.381-4.143h-4.55zm83.974 39.352a22.26 22.26 0 0 1-9.381 5.598 39.8 39.8 0 0 1-13.461 2.079c-7.458 0-13.477-2.283-17.824-6.848-4.346-4.565-6.832-10.944-7.254-19.059V88.9a35.8 35.8 0 0 1 2.908-14.697 22.97 22.97 0 0 1 8.489-9.74 24.24 24.24 0 0 1 12.852-3.315c7.036 0 12.633 1.657 16.573 4.972 3.94 3.314 6.254 8.083 6.832 14.493h-13.258a10.66 10.66 0 0 0-3.127-6.832 9.38 9.38 0 0 0-6.535-2.064 9.27 9.27 0 0 0-8.083 4.346 22.95 22.95 0 0 0-2.893 12.508v3.518c0 5.597 1.032 9.944 2.893 12.852s4.972 4.346 9.115 4.346a11.78 11.78 0 0 0 8.083-2.486v-8.912h-9.522v-9.38h23.202V112.1zm42.48-17.198H655.44v13.665h25.469v10.569h-39.087V62.18h39.369v10.569h-25.485v12.007h21.545V94.92zm30.034 3.925h-7.457v20.122h-13.884V62.18h22.373c6.848 0 12.023 1.454 15.744 4.565a15.32 15.32 0 0 1 5.801 12.633 18.6 18.6 0 0 1-2.486 9.944 17.65 17.65 0 0 1-7.458 6.426l11.82 22.983v.625H716.76zm-7.457-10.554h8.693a7.1 7.1 0 0 0 5.8-2.08 8.62 8.62 0 0 0 2.017-5.784 7.73 7.73 0 0 0-2.064-5.8 7.38 7.38 0 0 0-5.753-2.064h-8.709zM55.347 11.257h4.378V0h-4.378a35.304 35.304 0 0 0-35.334 35.335v25.64A21.263 21.263 0 0 1 0 82.24l.313 5.629L0 93.496a21.265 21.265 0 0 1 20.013 21.263v29.55a36.994 36.994 0 0 0 36.898 37.055v-11.257a25.66 25.66 0 0 1-25.641-25.642v-29.706a32.47 32.47 0 0 0-14.228-26.891A32.67 32.67 0 0 0 31.27 60.976V35.335a24.187 24.187 0 0 1 24.077-24.078M185.429 11.257h-4.377V0h4.377a35.27 35.27 0 0 1 35.179 35.335v25.64A21.26 21.26 0 0 0 240.62 82.24l-.312 5.629.312 5.628a21.264 21.264 0 0 0-20.012 21.263v29.55a36.996 36.996 0 0 1-36.898 37.055v-11.258a25.654 25.654 0 0 0 25.641-25.641v-29.706a32.47 32.47 0 0 1 14.227-26.891 32.69 32.69 0 0 1-14.227-26.892V35.335A23.95 23.95 0 0 0 194.615 13.1a24 24 0 0 0-9.186-1.844M161.352 45.34h16.729l-34.866 32.678a34.02 34.02 0 0 1-45.653 0L62.696 45.34h16.73l26.422 24.703a21.39 21.39 0 0 0 28.925 0zM79.269 136.023h-16.73l35.022-32.834a33.695 33.695 0 0 1 45.654 0l35.022 32.834h-16.729l-26.579-25.016a21.39 21.39 0 0 0-28.925 0z"/></svg>
